X: 242
T: Jim Donoghue's
R: reel
M: 4/4
L: 1/8
K:Dmaj
"D"~A3F BFAF|BFAF "Em"ED[B,B]D|"D"~A3F BFAF|"Em"EDEF "D"DEFG|
"D"A3F "Bm"BFAF|"D"DF~F2 "(A)"ABde|"D" ~f3e defe|1 dBAF DEFG:|2 dBAF D3e||
"D"~f3e  fgfe|dfed "Bm"BAFA|"Em"Beed e2 de|"D"f2df "Em(D)"edBA|
"D"dffe f2fe|dfed "Bm"BAFA|"D(A)"ABde "D"fdAF|1 EDEF D3e:|2 EDEF DEFG|]


